storage/app/icons/phosphoricons/duotone/wallet-duotone.svg

<svg xmlns="http://www.w3.org/2000/svg" fill="currentColor" viewBox="0 0 256 256"><path d="M224 80v112a8 8 0 0 1-8 8H56a16 16 0 0 1-16-16V56a16 16 0 0 0 16 16h160a8 8 0 0 1 8 8" opacity=".2"/><path d="M216 64H56a8 8 0 0 1 0-16h136a8 8 0 0 0 0-16H56a24 24 0 0 0-24 24v128a24 24 0 0 0 24 24h160a16 16 0 0 0 16-16V80a16 16 0 0 0-16-16m0 128H56a8 8 0 0 1-8-8V78.63A23.8 23.8 0 0 0 56 80h160Zm-48-60a12 12 0 1 1 12 12 12 12 0 0 1-12-12"/></svg>

<svg xmlns="http://www.w3.org/2000/svg" viewBox="0 0 256 256" fill="currentColor"><path d="M224,80V192a8,8,0,0,1-8,8H56a16,16,0,0,1-16-16V56A16,16,0,0,0,56,72H216A8,8,0,0,1,224,80Z" opacity="0.2"/><path d="M216,64H56a8,8,0,0,1,0-16H192a8,8,0,0,0,0-16H56A24,24,0,0,0,32,56V184a24,24,0,0,0,24,24H216a16,16,0,0,0,16-16V80A16,16,0,0,0,216,64Zm0,128H56a8,8,0,0,1-8-8V78.63A23.84,23.84,0,0,0,56,80H216Zm-48-60a12,12,0,1,1,12,12A12,12,0,0,1,168,132Z"/></svg>
